X: 21231
M: 2/4
L: 1/16
K: D
V: 1 name="4"
(3(bag) (3(agf) (3(gfe) (3(fed) | (3(edc) (3(dcB) (3(cBA) (3(BAG) |
(3(bag) (3(agf) (3(gfe) (3(fed) | Acec "^D.C."d2 |]\
dcde [fd]efg | aAgA [ec]Az2 |
dbca BgAf | GdFc EBDA |\
dcde [fd]efg | aAgA eAz2 |\
bagc' agfa | Aba^g "^D.C."a2 |]


